X:5454
T:Reconciliation, The
O:england
M:C|
R:Reel
K:A
A2cA eAfA|eAfA ecBc|A2 (3cBA eAfA|ecBc AFEF|\
A2 (3cBA eAfA|eAfA ecBc|ABAF Ecdf|ecBc A2 (3EFG::\
A2 ce ~a3f|(3efg ed cdBc|ABce ~a4|fbba b4|\
~a3e (3fga ec|dB (3cBA BAF2|ABAF Ecdf|ecBc A2(3EFG:|


